X:1
T:Piano Sonata No. 2
T:II
C:Sergei Rachmaninoff
%%score { ( 1 2 7 ) | ( 3 5 6 ) | 4 }
L:1/8
Q:1/4=64
M:4/4
K:G
V:1 treble nm="Piano" snm="Pno."
V:2 treble 
V:7 treble 
V:3 bass 
V:5 bass 
V:6 bass 
V:4 treble 
V:1
"^Non allegro"!mf!"^espr."!<(! (f2 g2-!<)! g!>(!f^de)!>)! | !tenuto!e2 A4- A(B | %2
!<(! c2 !tenuto!e2-!<)!!>(! edBc)!>)! |!mf! (!tenuto!c2 G2-) G!<(! (A2 B!<)! | %4
!>(! !tenuto!A2!>)!"_dim." E2-) E (F2 G) |!p! !tenuto![A,DF]4"_dim." !tenuto![G,DE]4 | %6
!pp! !tenuto![A,DF]4- [A,DF] z |[M:12/8]!p![Q:1/4=60]"^Lento" (!tenuto!G2 !fermata!A) | %8
{/xx} (!tenuto!G3- G2 B) (!tenuto!G2 A) (!tenuto!!fermata!F2 !arpeggio!!fermata![xCDA]) | %9
{/xx} (!tenuto!F3- F2 A) (!tenuto!F2 G) (!fermata!E2 !arpeggio!!fermata![xG,CEB]) | %10
{/xx} (!tenuto!E3- E2 G) (!tenuto!E2 F)!<(! ([A,C^D]2 [^G,B,E])!<)! | %11
!>(! (5:3:5(!tenuto!F!tenuto!G!tenuto!^A-!tenuto!^d!tenuto!e!>)! !tenuto!f3-) f2 z!p! z2 z | %12
 z z (g e6) z2 z | z z (f d6) z2 z | z z (e c6)!<(! z (B2!<)! | %15
 ^A3) !tenuto!f2!<(! (B- (5:3:5Bc_efg!<)!!p!!>(! [=Aa][Bb]!fermata![cc'])!>)! | %16
[M:4/4][Q:1/4=50]"^50" x/8 (2:3:2x/8 x/8[Q:3/8=40]!p! !arpeggio!!tenuto![dgd']6[Q:1/4=42]"^42" (!tenuto![Aa]7/4!fermata!g/4)[Q:1/4=44]"^44" | %17
[Q:1/4=50]"^50" (6:1:3(Gd-g-[Q:1/4=40]"^40" !tenuto![dgd']6)[Q:1/4=42]"^42" (!tenuto!g>f)[Q:1/4=45]"^45" | %18
[Q:1/4=45]"^45" (6:1:3(EBe[Q:1/4=40]"^40" !tenuto!d'6)[Q:1/4=40]"^40" (!tenuto!f>e)[Q:1/4=43]"^43" | %19
[Q:1/4=34]"^34" (10:1:5(EBed-!fermata!e-[Q:1/4=40]"^40" !tenuto![ded']6)[Q:1/4=40]"^40" (!tenuto!e>d)[Q:1/4=44]"^44" | %20
[M:12/8][Q:1/4=35]"^35" (10:1:5(DAd!fermata!d-!fermata!a!p![Q:1/4=60]"^60" !tenuto!d'3)[Q:1/4=65] (b2 a) !tenuto!d'3 (g2 f) | %21
"_dim." !tenuto!d'3 (!tenuto!e2 d) !tenuto!d'3 (!tenuto!!fermata!=c2 !fermata!_B) | %22
[Q:1/4=65]"^65" (6:1:6(A,DFA[Q:1/4=60]"^60"df!pp! d'/e'/[Q:1/4=64]"^64"[dgd']/e'/[Q:1/4=68]"^68"[dad']/e'/ [dad']/e'/[dbd']/e'/[dad']/e'/ [dad']/e'/[dgd']/e'/[dad']/e'/ [dad']/[Q:1/4=64]"^64"e'/[dbd']/[Q:1/4=60]"^60"e'/[dad']/[Q:1/4=56]"^56"e'/ | %23
 d'/e'/ d'2-) d'3- [dad'] z z!mf![Q:1/4=60]"^60" ([B,EG]2 [CEA]) | %24
 z!pp![Q:1/4=64]"^64" (e'[Q:1/4=66]"^66"e) (e[Q:1/4=68]"^68"b!mf!"_m.g."B) (BeE)"^m.d." !tenuto!!fermata![B,EF]2 !fermata![CDA] | %25
 !fermata!x/!mf! !fermata!z[Q:1/4=68]"^68" (e'e) (eb"_m.g."B) (BeE)"^m.d." !tenuto![B,DE]2[Q:1/4=60]"^60" [G,CG] | %26
 z[Q:1/4=68]"^68" (e'e) (eb"_m.g."B) (Be"_m.d."!fermata![EF]) (!fermata!^D[Q:1/4=60]"^60"!<(!B) z!<)! | %27
!mf! (5:3:5[^DF][Q:1/4=64]"^64"!>(![EG][Q:1/4=68]"^68"[F^A][G^d][Q:1/4=64]"^64"[A-e]!>)! f2 B-!<(! B2 (!fermata!f !fermata!g!fermata![=Aca][G=dg])!<)![Q:1/4=60]"^60" | %28
!f! (!tenuto![Geg][Q:1/4=78]"^78"[Bb])!tenuto!!fermata![Fdf] (!tenuto!!fermata![Fdf][Bb])!tenuto!!fermata![Ece] (!tenuto!!fermata![Ece][Bb])([Dd] !tenuto!!fermata![Ece]!fermata![Aa])!tenuto!!fermata![df] | %29
 (!tenuto!!fermata![Fdf][Bb])!tenuto![Ece] (!tenuto!!fermata![Ece][Bb])!tenuto!!fermata![DBd] (!tenuto!!fermata![DBd][Bb])([Cc] !tenuto!!fermata![DBd][Aa])!tenuto!!fermata![ce] | %30
 (!tenuto!!fermata![Ece][Bb])!tenuto![DBd] (!tenuto!!fermata![DBd][Bb])!tenuto!!fermata![CAc] (!tenuto!!fermata![CAc][Ee])([B,B] !fermata![^CA^c]!fermata![Ff])[A^d] | %31
!mf! (!tenuto!!fermata![A^d][Gg])([Be]"_cresc." !tenuto!!fermata![Fdf][Bb])([Geg] !tenuto!!fermata![Afa][=dd'])([Bgb] !tenuto!!fermata![Afa][ee'])!fermata![Bgb]- | %32
 [Bgb]2 !tenuto![cac']-!ff! [cac']2 !tenuto![dbd'] !tenuto![ec'e']!tenuto![fd'f']!tenuto!!fermata![ge'g'] !>!!fermata![af'a']!>!!fermata![bg'b']!tenuto!!fermata![Adfa]- | %33
 [Adfa]2 !tenuto![Bgb]- [Bgb]2 !tenuto![cac'] !tenuto![dbd']!tenuto![ec'e']!tenuto!!fermata![fd'f'] !>!!fermata![ge'g']!>!!fermata![af'a']!tenuto!!fermata![Gceg]- | %34
 [Gceg]2 !tenuto![Afa]- [Afa]2 !tenuto![Bgb] !tenuto![cac']!tenuto![dbd']!tenuto!!fermata![ec'e'] !>!!fermata![f^d'f']!>!!fermata![ge'g']>!fermata![Bb] | %35
[Q:1/4=68]"^68""_dim."{/xx} [Beb]2 [ebe']- [ebe']2 [Beb]- [Beb]2 [EBe]-!p! [EBe]2 z[Q:1/4=64]"^64"[Q:1/4=60]"^60" | %36
!pp! x6 x3 =FEG,[Q:1/4=132]"^Poco più mosso" | %37
"_poco cresc." x6 !fermata!z"^m.g."!mf![Q:1/4=140]"^140" (d^c"^m.d." =cB!fermata!D) || %38
[K:C][M:3/4][Q:3/8=94] !fermata!z/!p! (f/e/_e/ _d/_B/F/E/ _E/_D/_B,/F,/) || %39
[M:4/4][Q:1/4=94] (6:4:5z/ z/ !tenuto![_B,_DF]/-"_agitato"[B,DF]!tenuto![CDFA]/- (6:4:4[CDFA]!tenuto![B,DF]/-[B,DF]!tenuto![CDF_A]/-"_cresc." (6:4:4[CDFA]!tenuto![B,DF]/-[B,DF]!tenuto![CDFG]/- (6:4:4[CDFG]!tenuto![B,DF]/-[B,DF]!>![_G,B,D_G]/- || %40
[M:12/8]!f![Q:3/8=140]"^( )" [G,B,DG]2[Q:1/4=148]"^148" z!>(! z2 z!>)! x[K:bass]!mf! x[Q:1/4=150]"^150" x _B,_G,_D, | %41
 x6 !fermata!z[K:treble]"^m.g."!mf! (_dc"^m.d." _c_B_D)[Q:1/4=162]"^162" || %42
[M:4/4][Q:3/8=100] !fermata!z/ (e'/^d'/=d'/ ^c'/=c'/a/e/-) e/^d/=d/^c/!>(! =c/A/E/^D/!>)!!f! | %43
[M:2/4] =D/C/[I:staff +1]A,/E,/-[I:staff -1] x2 | %44
!mf![Q:1/4=90]"^90" (3!fermata!z"^m.g." (c=B"^m.d." (3_B!>(!A!mp!C)!>)! || %45
[M:3/4]!mf! z"_expressione" (!tenuto!_e!tenuto!=d!tenuto!_d (3_c[_C_A][=C=A][Q:1/4=96]"^Poco più mosso" | %46
"_cresc." _B) (_g2 =f (3=e[=G=B][^G=c]) ||[M:2/4] (3:2:2(^c2 a- (3a^g^f) | %48
 (3:2:2(=f2 _d'- (3d'!fermata![cc']!fermata![_c_c'] || %49
[M:3/4]!f! !fermata![_B_e_b])(!tenuto!!fermata![e_d'_e'] !tenuto!!fermata![=d_c'=d']!tenuto!!fermata![_db_d'] !tenuto!e2 | %50
"_dim." !tenuto!d4)!<(! !tenuto!D2!<)! | %51
 z!f! (!tenuto![_d-_d']!tenuto![dc']!tenuto!_c' (3:2:2!tenuto!_b2 d) | %52
"_dim." !tenuto!_d4-[Q:1/4=88]"^rit." (3:2:2!fermata!d[K:bass]!>(! _D2!>)! || %53
[M:3/2]!pp! (6:4:6(!fermata![G,C][Q:1/4=92]"^92"B,A,G,E,B,,) (6:4:6z B,A,G,E,B,, z/ (B,/A,/^G,/(3=G,E,^A,,) || %54
[M:4/4] (6:4:6z (^CA,G,E,^A,,) z/ (C/A,/^G,/(3=G,E,=A,,) | %55
"_poco a poco cresc." (D/C/_B,/G,/ D,/D/C/B,/ (3G,D,D (3CB,G, | %56
 D,/D/C/_B,/ (3G,D,)(E (3DCG, (3E,)(ED | %57
[M:2/4] (3CG,E,)[K:treble][Q:1/4=102]"^102" (6:4:6z/ (b'/a'/^g'/=g'/e'/ || %58
[K:G][M:4/4] (6:4:6!>!b/)(g'/f'/=f'/e'/c'/ (6:4:6!>!g/)(b/a/^g/=g/e/ (6:4:6!>!B/)(g/f/=f/e/c/ (6:4:6!>!!fermata!G/)(b'/a'/^g'/=g'/e'/ | %59
 (6:4:6!>!b/)(g'/f'/=f'/e'/c'/ (6:4:6!>!g/)(b/a/^g/=g/e/ (6:4:6!>!B/)(g/f/=f/e/c/ (6:4:6!>!G/)(b/a/^g/=g/e/ | %60
!f!"_cresc." (6:4:6!>!!fermata!B/)(g'/f'/=f'/e'/c'/ (6:4:6!>!g/)(b/a/^g/=g/e/ (6:4:6!>!!fermata!B/)(b'/a'/^g'/=g'/e'/ (6:4:6!>!g/)(b/a/^g/=g/e/ | %61
!ff! (6:4:6B/)(b/a/^g/=g/e/ (6:4:6B/A/^G/=G/E/C/[I:staff +1] (6:4:6B,/A,/^G,/=G,/E,/C,/ (6:4:6B,,/A,,/^G,,/=G,,/E,,/C,,/) | %62
!f![I:staff -1] x4 x2[Q:1/4=174]"^174" (C/^D/^G/B/) (5:4:5(E/A/B/c/^d/) (G/B/d/=f/) (5:4:5(A/c/d/e/^g/) (c/d/g/b/) (5:4:5(e/a/b/c'/^d'/)!8va(! (^g/b/^d'/=f'/) (5:4:5(a/c'/d'/e'/^g'/) (c'/d'/g'/b'/) (5:4:5(e'/a'/b'/c''/^d''/)[Q:1/4=252]"^252" e''2!8va)! !fermata!z4[Q:1/4=40]"^40" !fermata!x!p! (E,[Q:1/4=252]"^252"[Q:1/4=264]"^264" || %63
[M:12/8][Q:1/4=60]"^Tempo I"!pp! A,E) !tenuto![B,B] (CEE, G,E) !tenuto![B,B] (CEE, | %64
 ^G,E) !tenuto![B,B] (^CE) (E Be) z z (!fermata!B!fermata!^c) || %65
[K:E]!p! (!fermata![eg]>=g[cf]) (!tenuto![e^g]3- [eg]>f!tenuto![ce]) (!tenuto![eg]!>(!f/e/!tenuto!!fermata![Bd])!>)! | %66
!p! (!tenuto!!fermata![eg]>[fb][eg]) !tenuto![eg]3- [eg]2!<(! (f g2 !fermata!b!<)! | %67
!mf! !tenuto!e3-)!>(! e2 (d!>)!!<(! ed!<)!e!>(! f2 !fermata!g)!>)! | %68
!p! !arpeggio!!tenuto![CEA=B-]6 B2 (c!mp!!>(! !fermata!d2{/!fermata!x!fermata!x} !fermata!e)!>)! | %69
!p! !arpeggio!!tenuto![=A,CF^G-]6!<(! G2 (A!<)!!mp!!>(! !fermata!B2{/!fermata!x!fermata!x} !fermata!c)!>)! | %70
 !arpeggio!!tenuto![F,=A,=DE-]6 E2 (F!mp!!>(! G2 !fermata!A)!>)! | %71
[K:bass]!pp! !tenuto!B,3- B,2[K:treble]!mf! (c' !tenuto!d3-) d2!p! (!fermata!A | %72
[K:bass]!pp! !tenuto!B,3-) B,2[K:treble]!mf! (c' !tenuto!d3-) d2!p! (!fermata!A | %73
[K:bass]!pp! [C,A,B,-]3) B,(E,B,-) B,(D,B,-) B,(C,B,-) | %74
 B,(A,B,-) B,(G,B,-) B,(F,B,-) B,(E,!fermata!B,-) | %75
!pp! [G,B,]6!p!!>(! (!tenuto!B,3- B,>^A,!fermata!=A,)!>)! |!pp! !tenuto!!fermata![E,G,B,]12 || %77
[K:C][M:3/4][K:treble] !fermata!x2 | %78
V:2
 ^A8 | (=A6 G2) | (F6 =F2) | (E4 _E2 D2 | ^C4) (=C2 B,2) | x8 | x6 |[M:12/8] [B,E]3 | %8
 !arpeggio![CF]6 [CE]3 [B,E]2 x | !arpeggio![B,E]6 [CE]3 [B,D]2 x | !arpeggio![B,D]6 [A,-D]3 x3 | %11
 [=G,^A,]3 (A2 B-) B2 x ([B,EG]2 [CE=A]) | %12
 [DEG]3- [DEG]2 ([CEB] [DEG]2) ([CEA] !fermata![B,EF]2) !fermata![A,CDA] | %13
 [CEF]3- [CEF]2 ([B,DA] [CEF]2) ([B,DG] !fermata![A,DE]2){/!fermata!x!fermata!x} (!arpeggio!!fermata![G,CG] | %14
 !tenuto![B,DE]3-) [B,DE]2 ([A,CG] [B,DE]2) ([A,CF] [A,B,^D]2) E | %15
 (5:3:5!tenuto!F!tenuto!G!tenuto!^A!tenuto!^d!tenuto!e =A2 ^G =G3 (=d>=ef) | %16
[M:4/4] x13/2 A/B/A/d/ | x13/2 (G/!fermata!A/!fermata!G/!fermata![Fd]/) | %18
 x13/2 (F/!fermata!G/!fermata!F/!fermata![Ed]/) | %19
 x13/2 [E-G]/!fermata![E-A]/!fermata![EG]/!fermata![EB]/ | %20
[M:12/8] x/ (d"^64"ed !fermata!ede ded ede) | %21
 d([EG][DF]-) [DF]([EG][DF]-) [DF](!fermata![EG][DF]-) [DF]!>(!(!fermata![EG][DF])!>)! | x13 | %23
 [da]6- x6 | !tenuto![DEG]3- [DEG]2 ([CEB] [DEG]2) !fermata![CA] (E!fermata!B) z | %25
 x/ !tenuto![B,EF]3- [B,EF]2 [B,DA] [CEF]2 !fermata![A,CG] (!fermata!E!fermata!B) z | %26
 !tenuto![B,DE]3- [B,DE]2 ([A,CG] [B,DE]2) [A,C] (A,2 [B,E]) | %27
 [=G,^A,]3 A2 (F !fermata!G!fermata!=A^A B) x2 | x12 | x12 | x12 | x12 | x12 | x12 | x12 | x12 | %36
 x12 | x12 ||[K:C][M:3/4] x6 ||[M:4/4] x8 ||[M:12/8] x7[K:bass] x5 | x7[K:treble] x5 ||[M:4/4] x8 | %43
[M:2/4] x4 | x4 ||[M:3/4] x6 | [_D_F]4 z2 ||[M:2/4] (3z (A=c (3:2:2^c2) !tenuto!=c | %48
 (3z (_de (3:2:2f2) x ||[M:3/4] x4 (3=d!fermata!^c!fermata!=c | (c=B _BG) (3(CB,_B,) | %51
 [_B,_D]4 (3!tenuto!_dc!fermata!_c | (!fermata!_c_B =A_A (3_G)[K:bass] A,!fermata!_A, || %53
[M:3/2] x12 ||[M:4/4] x8 | x8 | x8 |[M:2/4] x2[K:treble] x2 ||[K:G][M:4/4] x8 | x8 | x8 | x8 | %62
 x18!8va(! x10!8va)! x6 ||[M:12/8] x12 | x12 ||[K:E] x12 | x9 [Bd]3 | %67
 !arpeggio![EGc]6 [Gc]3 [F^B]3 | !arpeggio!x/ x11/2 [EG]3 [!courtesy!^DG]2{/xx} !arpeggio![=D=G] | %69
 !arpeggio!x/ x11/2 [=CE]3 [B,E]2{/xx} !arpeggio![^A,D] | !arpeggio!x/ x11/2 [G,C]3 [F,=C]3 | %71
[K:bass] [C,E,A,]5[K:treble] x7 |[K:bass] [C,E,A,]5[K:treble] x7 |[K:bass] (E,F,G,) x9 | x12 | %75
 x6 [E,A,]6 | x12 ||[K:C][M:3/4][K:treble] x2 | %78
V:3
!p! [F,^CE]8 | ([=CE]6 [B,D]2) | C8 | (G,4 F,2 =F,2 | E,4) (^D,2 =D,^C,) | %5
 !tenuto![D,,D,]4 !tenuto![B,,,D,]4 | [D,,D,]4- [D,,D,] z |[M:12/8]!p! [E,,E,]3 | %8
!ped! !fermata!z2 z!ped-up!!ped! (E,6!ped-up!!ped! D,2)"^m.g."[I:staff -1] F,!ped-up! | %9
!ped![I:staff +1] !fermata!z2 z!ped-up!!ped! (D,6!ped-up!!ped! C,2)"^m.g."[I:staff -1] E,!ped-up! | %10
!ped![I:staff +1] !fermata!z2 z!ped-up!!ped! C,6!ped-up!!ped! (B,,2 C,)!ped-up! | %11
 (^C,G,^C- !tenuto![CE]2 ^D-) D2 z E,3 | %12
!ped! z z (E, E2)!ped-up! (G,!ped! E,2) (A,,!ped-up! D,2)!p!!ped! F,!ped-up! | %13
!p!!ped! z z (D, D2)!ped-up! (F,!ped! D,2) (G,,!ped-up!!ped! C,2){/xx} E,,!ped-up! | %14
!ped! z z (C, C2)!ped-up! (E,!ped! C,2) (F,,!ped-up! B,,2) ([C,^G,] | %15
 ([^C,=G,])^CE) !tenuto!^D3- D2 (G [=CF]>!fermata![G,E][F,=D]) | %16
[M:4/4]!ped! (6:1:3(G,,D,B,[K:treble]"^dolce"!p! ([DB]/)[Ec]/!fermata![DB]/[I:staff -1]!fermata![GBd]/)[I:staff +1] (!fermata![CA]/[DB]/[CA]/[I:staff -1][FBd]/)[I:staff +1] ([B,G]/[CA]/!fermata![B,G]/[I:staff -1]!fermata![EBd]/)!ped-up![I:staff +1] ([CE]/!fermata![DF]/!fermata![CE]/!fermata![FA]/) | %17
[K:bass]!ped! (6:1:3(G,,D,B,[K:treble] ([DB]/)[Ec]/!fermata![DB]/[I:staff -1]!fermata![GBd]/)[I:staff +1] (!fermata![CA]/[DB]/[CA]/[I:staff -1][FBd]/)[I:staff +1] ([B,G]/[CA]/!fermata![B,G]/[I:staff -1]!fermata![EBd]/)!ped-up![I:staff +1] (E>A) | %18
[K:bass]!ped! (6:1:3(E,,B,,G,[K:treble] ([DB]/)[Ec]/!fermata![DB]/[I:staff -1]!fermata![GBd]/)[I:staff +1] (!fermata![CA]/[DB]/[CA]/[I:staff -1][FBd]/)[I:staff +1] ([B,G]/[CA]/!fermata![B,G]/[I:staff -1]!fermata![EBd]/)!ped-up![I:staff +1] (E>G) | %19
[K:bass]!ped! (6:1:3(E,,B,,G,[K:treble] ([DB]/)[Ec]/!fermata![DB]/[I:staff -1]!fermata![GBd]/)[I:staff +1] ([CA]/[DB]/[CA]/[I:staff -1][FBd]/)[I:staff +1] ([B,G]/[CA]/!fermata![B,G]/[I:staff -1]!fermata![EBd]/)!ped-up![I:staff +1][K:bass] B,/^C/B,/[DG]/ | %20
[M:12/8]!ped! (6:1:3(D,,A,,F,[K:treble] [DFA])(!tenuto![^CB][DA]-)!ped-up!!ped! [DA](!tenuto![=CB][DA]-)!ped-up!!ped! [DA](!tenuto![B,B][DA]-)!ped-up!!ped! [DA](!tenuto!B[FA]-)!ped-up! | %21
!ped! [FA][K:bass](B,A, B,!ped-up!!ped!A,B, A,!ped-up!!ped!B,A,-) A,!ped-up!!ped! _B,2!ped-up! | %22
!ped! x/{/D,,,} (x/ D,,/A,,/E,/A,,/F,/D,/ A,/F,/!ped-up!!ped!B,/E,/A,/F,/ D/F,/!ped-up!!ped!E/A,/F/D/[K:treble] A/F/!ped-up!!ped!B/E/d/F/ | %23
 fA-D-)!ped-up! d3- d z z[K:bass]!mp! (E,2 E,,) | %24
!ped! z z (B, E2) z!ped-up!!ped! z2 z!ped-up!!ped! D,2!ped-up!!mf!!ped! F,!ped-up! | %25
 (2:1:2(G,,,/G,,/-!mp!!ped-up!!ped! z) z (B, E2) z!ped-up!!ped! z2 z!ped-up!!ped! (C,2 E,,) | %26
!ped! z z (B, E2) z!ped-up!!ped! z2 z B,,2 [C,^G,]!ped-up! | (^C,G,^C!p! EC^D E=F^F) G z z | %28
!mf!!ped! (A,,E,C)!ped-up!!ped! (!tenuto!B3!ped-up!!ped! x2 A)!ped-up!!ped! G2 F | %29
!ped! (G,,D,B,)!ped-up!!ped! (!tenuto!A3!ped-up!!ped! x2 G)!ped-up!!ped! (F2!ped-up! E) | %30
!ped! (F,,C,A,)!ped-up!!ped! (!tenuto!G3!ped-up!!ped! x2 F)!ped-up!!ped! (E2 ^D)!ped-up! | %31
!ped! (!tenuto![F,A,^D]C,)([G,B,E]!ped-up!!ped! !tenuto![F,A,D]B,,)([G,B,E]!ped-up!!ped! !tenuto![A,=DF][G,,D,])([B,DG]!ped-up!!ped! !tenuto![A,EF][E,,E,])!ped-up!!ped![B,EG] | %32
"^m.d."!ff! !tenuto!!fermata![G,CEG]"^m.g." [Cc]!tenuto![F,CEF] (!tenuto!!fermata![F,CEF][Cc])!tenuto![E,A,CE]!ped-up!!ped! (!tenuto![E,A,CE][Cc])!tenuto![D,D]!ped! !>![D,D]!>![CEGc]!ped!!tenuto![F,F] | %33
"^m.d." !tenuto!!fermata![F,B,DF]"^m.g." [B,B]!tenuto![E,B,DE] (!tenuto!!fermata![E,B,DE][B,B])!tenuto![D,G,B,D]!ped-up!!ped! (!tenuto![D,G,B,D][B,B])!tenuto![C,C]!ped-up!!ped! !>![C,C]!>![B,EGB]!ped-up!!ped!!tenuto![E,E] | %34
"^m.d." !tenuto!!fermata![E,A,CE]"^m.g." [A,A]!tenuto![D,A,CD] (!tenuto!!fermata![D,A,CD][A,A])!tenuto![C,E,C]!ped-up!!ped! (!tenuto![C,E,C][A,A])!tenuto![B,,B,]!ped-up!!ped! !>![B,,B,]!>![A,CEA] !tenuto!!fermata![A,,A,]!ped!!ped-up! | %35
!ped!{/!fermata!x-!fermata!x-} (!arpeggio!!tenuto!!fermata![E,,B,,A,]E)!ped-up!!fermata![A,,G,]!ped-up!!ped!{/!fermata!x-!fermata!x-} (!arpeggio!!tenuto!!fermata![E,,B,,G,]B,)[A,,F,]!ped-up!!ped! (!tenuto![E,,B,,F,]B,)[A,,E,]!ped-up!!ped! (!tenuto![E,,-B,,E,]G,)B,,- | %36
!ped! B,,(B,^A, =A,G,B,,-) B,,[I:staff -1]GF[I:staff +1] x3!ped-up! | %37
[K:treble]!ped! (B^A=A G[I:staff -1]E!fermata!G,)[I:staff +1][K:bass]"^m.d."!ped-up!!ped! [^G,D=F]6!ped-up! || %38
[K:C][M:3/4]"^m.d."!mf!!ped! !arpeggio!!tenuto![xF,_B,_DF]6 || x6!ped-up! %39
[M:4/4]!pp! (6:4:6([F,,_D,]/_B,,,/)z/([D,=A,]/F,,/) z/ (6:4:6([F,,D,]/B,,,/)z/([D,_A,]/F,,/) z/ (6:4:6([F,,D,]/B,,,/)z/([D,G,]/F,,/) z/ (6:4:6([F,,D,]/B,,,/)z/([D,_G,]/F,,/) z/ || %40
[M:12/8] (!arpeggio!!fermata![_B,,,_G,,F,]E,_E, _D,_B,,G,,-) G,,[I:staff -1]C_C[I:staff +1] z2 z | %41
 (FE_E _D[I:staff -1]_B,!fermata!_A,)"^m.d."!ped-up!!ped![I:staff +1] !tenuto![G,D_F]6 || %42
[M:4/4]"^m.d."!ped! !arpeggio!!stemless![A,,,E,,C,=E,A,C=E][K:treble] (!tenuto!e!tenuto!^d!tenuto!=d !tenuto!c>A E2) | x4!ped-up! %43
[M:2/4][K:bass] x2!<(! E,/^D,/E,/!<)!F,/ |"^m.d."!ped! !tenuto![^F,C_E]4 || x4!ped-up! %45
[M:3/4]"^m.d."!ped! !tenuto![_E,_G,_C_E]2 (3_CE,_G,,!ped-up!!ped! z2 | %46
!ped! (3(_G=F_F (3_B,_F,_G,,)!ped-up!!ped! z2!ped-up! || %47
[M:2/4]!ped! (3([A,^D^G]^FD (3A,B,,) z | x2!ped-up! %48
[K:treble]!ped! (3([_D=Fc]_B_A[K:bass] (3_D!ped-up!F,_A,,) || %49
[M:3/4]!mf! (3(G,,_E,_B,[K:treble] (3D_E_B) (3z[K:bass] (^C_E,) | %50
 (3(G,,D,D- (3D^C=C) (3(D,G,,^F,,) | %51
 (3[=F,,_D,][K:treble]!mf! ([_G_B][_DA] (3[F_A][_B,=G][D_G][K:bass] (3([F,F])=E,_E,) | %52
 (3_G,,_D,_D- D2- (3:2:2D D,2 || %53
[M:3/2]!p! !tenuto![E,,C,]2 [E,,,E,,]2 !tenuto!C,2 [E,,,E,,]2 !tenuto!C,2 [E,,,E,,]2 || %54
[M:4/4] !tenuto!B,,2 [E,,,E,,]2 !tenuto!B,,2 [E,,,E,,]2 | %55
 !tenuto!_B,,2 [E,,,E,,]2 !tenuto!B,,2 [E,,,E,,]2 | %56
 !tenuto!_B,,2 [E,,,E,,]2 !tenuto!A,,2 [E,,,E,,]2 |[M:2/4] !tenuto!A,,2!ped! [E,,,E,,]2!ped-up! || %58
[K:G][M:4/4]!ped! z !>![G,CE]3!ped-up!!ped! z !>![E,G,C]3!ped! | %59
!ped! z !>![G,CE]3!ped-up!!ped! z !>![E,G,C]3!ped-up!!ped!!ped-up! | %60
!ped! z [G,CE] !>![E,G,C]2!ped-up!!ped! z !>![G,CE]2 [E,G,C]!ped-up! | %61
!ped! !>![G,CE]8!ped-up!!ped!!ped-up!!ped!!ped-up! | %62
"_bassa"!8vb(! [A,,,,A,,,]!8vb)!E,,!mf!A,,!ped!C,^D,E,!ped-up!!ped! (=F,^F,)!ped-up!!ped! (!fermata!^G,!fermata!A,)!ped-up!!ped! (B,C)!ped-up!!ped! (!fermata!^D!fermata!E)!ped-up![K:treble]!ped! (3(=F^FG (3!fermata!^G!fermata!A!fermata!_B!ped-up!!ped! (3=Bc^c (3!fermata!d!fermata!^d!fermata!e (3=f^fg (3!fermata!^g!fermata!a!fermata!_b =bc'^c'd'^d'!ped-up!!ped!e') !fermata!z2!ped-up! || %63
[M:12/8][K:bass]!ped! (A,,,C,E,, E,A,,E,,)!ped-up!!ped! (C,,C,G,, G,C,G,,)!ped-up! | %64
!ped! (E,,,B,,E,, ^G,B,,)(B, ^CE)[K:treble](B ^ce) z!ped-up! || %65
[K:E]!p! ([EGB]>D[CFA]) (!tenuto![EGB]3- [EGB]>D!tenuto![CEG]) (!tenuto![EGB]D/C/!tenuto![B,DG]) | %66
 (!tenuto![EGB]>[DAc][EGB]) (!tenuto![EGB]3- [EGB]B,B [FG]3)!ped! | %67
[K:bass]!8va(!!ped! !fermata!z!8va)!!mp! E,,C,!ped-up! G,G,-F!ped-up! E2 G,!ped! (D2 =D)!ped-up! | %68
!p!!ped! !fermata!E,,B,,F, A,B,C!ped-up! B,3!ped! (B,2{/xx} ^A,)!ped-up! | %69
!ped! !fermata!E,,B,,F, G,A,B,!ped-up! G,3!ped! (G,2{/xx} =G,)!ped-up! | %70
!ped! !fermata!E,,,E,,B,, C,=D,A,!ped-up! E,3!ped! (^D,2 =D,)!ped-up! | %71
!ped! !fermata![E,,,E,,] (C,G, A,CE!ped-up!!ped! GFD CG,F,)!ped-up! | %72
!ped! !fermata![E,,,E,,] (C,G, A,CE!ped-up!!ped! GFD CG,F,)!ped-up! | %73
!ped! A,3!ped-up!!ped! A,3 G,3 F,3!ped-up! |!ped! E,3 D,3 C,3 B,,2 A,,!ped-up! | %75
!pp! !tenuto![B,,D,]6 (!tenuto!C,3- C,2 =C,) |"_attacca\nsubito" !fermata![E,,B,,]12 || %77
[K:C][M:3/4] x2 | %78
V:4
 z8 | z8 | z8 | z8 | z8 | z8 | z4 z2 |[M:12/8] z2 z | z12 | z8 z4 | z8 z4 | z12 | z12 | z12 | z12 | %15
 z12 |[M:4/4] z8 z/ | z8 z/ | z8 z/ | z8 z/ |[M:12/8] z/ z12 | z12 | z8 z4 z | z12 | z12 | %25
 z8 z4 z/ | z12 | z12 | z12 | z12 | z12 | z12 | z12 | z12 | z12 | z12 | z12 | z12 || %38
[K:C][M:3/4] z6 ||[M:4/4] z8 ||[M:12/8] z12 | z12 ||[M:4/4] z8 |[M:2/4] z4 | z4 ||[M:3/4] z6 | %46
 z6 ||[M:2/4] z4 | z4 ||[M:3/4] z6 | z6 | z6 | z6 ||[M:3/2] z12 ||[M:4/4] z8 | %55
 z"^m.g."!mf! !tenuto!g3- g !tenuto!e3- | e !tenuto!c3- c !tenuto!A3- |[M:2/4] A !tenuto!G3 || %58
[K:G][M:4/4] z8 | z8 | z8 | z8 | z32 z2 ||[M:12/8] z12 | z12 ||[K:E] z12 | z12 | z12 | z12 | z12 | %70
 z12 | z12 | z12 | z12 | z12 | z12 | z12 ||[K:C][M:3/4] z2 | %78
V:5
 x8 | x8 | (A,6 _A,2) | C,8 | (A,,6 G,,2) | x8 | x6 |[M:12/8] x3 |{/xx} [A,,,A,,-]3 A,,6 D,3 | %9
{/xx} [G,,,G,,-]3 G,,6 C,3 |{/xx} [F,,,F,,-]3 F,,6 B,,2 z | E,,3 B,3- B,2 x4 | %12
 [A,,,A,,]3 x8 !arpeggio!x | [G,,,G,,]3 x9 | [F,,,F,,]3 x9 | E,,3 (B,2 ^A, =A,3) D,3 | %16
[M:4/4] x/[K:treble] G3/2 x/ F3/2 x/ E3/2 x5/2 | %17
[K:bass] x/[K:treble] G3/2 x/ F3/2 x/ E3/2 x/ ([A,C]/[B,D]/[A,C]/D/) | %18
[K:bass] x/[K:treble] G3/2 x/ F3/2 x/ E3/2 x/ ([A,C]/[B,D]/[A,C]/[B,D]/) | %19
[K:bass] x/[K:treble] G3/2 x/ F3/2 x/ E3/2 x/[K:bass] [A,,E,]>A, | %20
[M:12/8] x/[K:treble] x ^C2 x =C2 x B,2 x [A,D]2- | %21
 [A,D][K:bass] F,2- F, D,2- D, [A,,-D,]2 A,, G,,2 | x10[K:treble] x3 | %23
 x3 [DA]3- [DA] x2[K:bass] x3 | !tenuto![A,,,A,,]6 x5 !arpeggio!x | x/ [G,,D,]6 x6 | %26
 [F,,,F,,]6 x6 | E,,3 B,3- B,3 E x2 |x2>x2CE, E,C-C- [A,C]D,[A,C] |x2>x2B,D,- D,B,G F C2 | %30
x2>x2A,E,- E,A,-F [F,A,]B,,[F,A,] | x12 | [A,,,A,,]6 x5/2{/D,,} x/ x3 | %33
 [G,,,G,,]6 x5/2{/C,,} x/ x3 | [F,,,F,,]6 x5/2{/B,,,} x/ x3 | x12 | E,,12 | %37
[K:treble] x6[K:bass] [E,,B,,]6 ||[K:C][M:3/4] [_B,,,F,,_D,]6 ||[M:4/4] x8 ||[M:12/8] x12 | %41
 x6 [_E,,_B,,]6 ||[M:4/4] z[K:treble] x7 |[M:2/4][K:bass] x4 | [D,,A,,]4 || %45
[M:3/4] [_G,,,_G,,]2 x4 | x6 ||[M:2/4] x4 |[K:treble] x2[K:bass] x2 || %49
[M:3/4] x2[K:treble] x8/3[K:bass] x4/3 | x6 | x2/3[K:treble] x10/3[K:bass] x2 | %52
 x2 (3_DC_C (3_B, _G,,F,, ||[M:3/2] x12 ||[M:4/4] x8 | x8 | x8 |[M:2/4] x4 || %58
[K:G][M:4/4] !tenuto![E,,A,,]2 !tenuto![A,,,E,,]2 !tenuto![E,,,A,,,]2 !tenuto![A,,,E,,]2 | %59
 !tenuto![E,,A,,]2 !tenuto![A,,,E,,]2 !tenuto![E,,,A,,,]2 !tenuto![A,,,E,,]2 | %60
 [E,,A,,]3 z [A,,,E,,]3 z | z2 !>![E,,,A,,,]6 |!8vb(! x!8vb)! x13[K:treble] x20 || %63
[M:12/8][K:bass] x12 | x8[K:treble] x4 ||[K:E] x12 | x12 | %67
[K:bass]!8va(! !arpeggio!x/ x/!8va)! x5 G,2 G,- G,3 | !arpeggio!x/ x11/2 x2 B,,- B,,3 | %69
 !arpeggio!x/ x11/2 x2 B,,- B,,3 | !arpeggio!x/ x11/2 x2 E,,- E,,3 | !arpeggio!x/ x11/2 [A,B,]6 | %72
 !arpeggio!x/ x11/2 [A,B,]6 | [E,,,E,,]3 x9 | x12 | G,,6 (F,,3- F,,2 =F,,) | x12 || %77
[K:C][M:3/4] x2 | %78
V:6
 x8 | x8 | x8 | x8 | x8 | x8 | x6 |[M:12/8] x3 | x12 | x12 | x12 | x12 | x12 | x12 | x12 | x12 | %16
[M:4/4] x/[K:treble] x8 |[K:bass] x/[K:treble] x8 |[K:bass] x/[K:treble] x8 | %19
[K:bass] x/[K:treble] x6[K:bass] x2 |[M:12/8] x/[K:treble] x F2- F F2- F F2- F x2 | %21
 x[K:bass] x8 (E,D,E,) | x10[K:treble] x3 | f6 x3[K:bass] x3 | x12 | x25/2 | x12 | x12 | x12 | %29
 x9 A,3 | x12 | x12 | x12 | x12 | x12 | x12 | x12 |[K:treble] x6[K:bass] !arpeggio!x2 x4 || %38
[K:C][M:3/4] x6 ||[M:4/4] x8 ||[M:12/8] x12 | x6 !arpeggio!x x5 ||[M:4/4] x[K:treble] x7 | %43
[M:2/4][K:bass] x4 | (3!arpeggio!x x x x2 ||[M:3/4] (3!arpeggio!x!p! =D_D x4 | x6 ||[M:2/4] x4 | %48
[K:treble] x2[K:bass] x2 ||[M:3/4] x2[K:treble] x8/3[K:bass] x4/3 | x6 | %51
 x2/3[K:treble] x10/3[K:bass] x2 | x6 ||[M:3/2] x12 ||[M:4/4] x8 | x8 | x8 |[M:2/4] x4 || %58
[K:G][M:4/4] x8 | x8 | x8 | x8 |!8vb(! x!8vb)! x13[K:treble] x20 ||[M:12/8][K:bass] x12 | %64
 x8[K:treble] x4 ||[K:E] x12 | x12 |[K:bass]!8va(! x!8va)! x11 | x12 | x12 | x12 | %71
 !arpeggio!x/ x23/2 | !arpeggio!x/ x23/2 | x12 | x12 | x12 | x12 ||[K:C][M:3/4] x2 | %78
V:7
 x8 | x8 | x8 | x8 | x8 | x8 | x6 |[M:12/8] x3 | x12 | x12 | x12 | x12 | x12 | x12 | x12 | x12 | %16
[M:4/4] x17/2 | x17/2 | x17/2 | x17/2 |[M:12/8] x25/2 | x9 =C x2 | x13 | x12 | x12 | x25/2 | x12 | %27
 x12 | x12 | x12 | x12 | x12 | x12 | x12 | x12 | x12 | x12 | x12 ||[K:C][M:3/4] x6 ||[M:4/4] x8 || %40
[M:12/8] x7[K:bass] x5 | x7[K:treble] x5 ||[M:4/4] x8 |[M:2/4] x4 | x4 ||[M:3/4] x6 | x6 || %47
[M:2/4] x4 | x4 ||[M:3/4] x6 | x6 | x2 _d2 x2 | x14/3[K:bass] x4/3 ||[M:3/2] x12 ||[M:4/4] x8 | %55
 x8 | x8 |[M:2/4] x2[K:treble] x2 ||[K:G][M:4/4] x8 | x8 | x8 | x8 | x18!8va(! x10!8va)! x6 || %63
[M:12/8] x12 | x12 ||[K:E] x12 | x12 | x12 | x12 | x12 | x12 | %71
[K:bass] !arpeggio!x/ x9/2[K:treble] x7 |[K:bass] !arpeggio!x/ x9/2[K:treble] x7 |[K:bass] x12 | %74
 x12 | x12 | x12 ||[K:C][M:3/4][K:treble] x2 | %78

